X:0874
M:C
L:1/8
Q:1/2=72
K:D
    D2 F>D A2 c>A|d2 f>d e2 g>e|fe/f/ {a}gf/e/ d2 e2 |d2 d>d d2   :|
    D2 F>D A2 c>A|d2 f>d e2 g>e|fe/f/ {a}gf/e/ d2 e2 |d2 d2  d2   :|

